modules/hawcons-stroke/icons/icon-129-cloud-download.svg

<?xml version="1.0" encoding="UTF-8" standalone="no"?>
<svg width="32px" height="32px" viewBox="0 0 32 32" version="1.1" xmlns="http://www.w3.org/2000/svg" xmlns:xlink="http://www.w3.org/1999/xlink" xmlns:sketch="http://www.bohemiancoding.com/sketch/ns">
    <!-- Generator: Sketch 3.0.3 (7891) - http://www.bohemiancoding.com/sketch -->
    <title>icon 129 cloud download</title>
    <desc>Created with Sketch.</desc>
    <defs></defs>
    <g id="Page-1" stroke="none" stroke-width="1" fill="none" fill-rule="evenodd" sketch:type="MSPage">
        <g id="icon-129-cloud-download" sketch:type="MSArtboardGroup" fill="#929292">
            <path d="M15,27.25 L11.75,24 L11,24.75 L15.5,29.25 L20,24.75 L19.25,24 L16,27.25 L16,16 L15,16 L15,27.25 L15,27.25 Z M14,22 L7.00281647,22 C4.79793835,22 3,20.209139 3,18 C3,16.1046097 4.32460991,14.5117359 6.10100919,14.1021544 L6.10100919,14.1021544 C6.03467626,13.7448817 6,13.3764904 6,13 C6,9.68629134 8.68629134,7 12,7 C14.6154416,7 16.8400262,8.67345685 17.6614243,11.0080411 C18.435776,10.3778124 19.4237666,10 20.5,10 C22.8583427,10 24.7929639,11.814166 24.9844379,14.1230721 L24.9844379,14.1230721 C26.7144917,14.5630972 28,16.1320162 28,18 C28,20.2046438 26.207878,22 23.9971835,22 L17,22 L17,23 L24.0005601,23 C26.7616745,23 29,20.7558048 29,18 C29,15.9035809 27.7132907,14.1085075 25.8828633,13.3655101 L25.8828633,13.3655101 C25.3600217,10.8722494 23.1486546,9 20.5,9 C19.6371017,9 18.8206159,9.19871575 18.0938083,9.55288165 C16.8911816,7.43144875 14.6127573,6 12,6 C8.13400656,6 5,9.13400656 5,13 C5,13.1381509 5.00400207,13.275367 5.01189661,13.4115388 L5.01189661,13.4115388 C3.23965876,14.1816085 2,15.9491311 2,18 C2,20.7614237 4.23249418,23 6.99943992,23 L14,23 L14,22 L14,22 L14,22 Z" id="cloud-download" sketch:type="MSShapeGroup"></path>
        </g>
    </g>
</svg>

<svg width="32" height="32" xmlns="http://www.w3.org/2000/svg"><path d="M15 27.25L11.75 24l-.75.75 4.5 4.5 4.5-4.5-.75-.75L16 27.25V16h-1v11.25zM14 22H7.003A4.005 4.005 0 0 1 3 18a4.006 4.006 0 0 1 3.101-3.898 6 6 0 0 1 11.56-3.094 4.5 4.5 0 0 1 7.323 3.115A4.006 4.006 0 0 1 28 18c0 2.205-1.792 4-4.003 4H17v1h7c2.762 0 5-2.244 5-5a4.998 4.998 0 0 0-3.117-4.634 5.502 5.502 0 0 0-7.79-3.813 7 7 0 0 0-13.082 3.859A5.006 5.006 0 0 0 2 18c0 2.761 2.232 5 5 5h7v-1z" fill="#929292" fill-rule="evenodd"/></svg>
